assets/imgs/report/legislature/intro/hint_mobile.svg

<svg fill="none" height="68" viewBox="0 0 72 68" width="72" xmlns="http://www.w3.org/2000/svg"><g fill="#fff"><path d="m24.2935 17.3194c-2.8773 1.6612-3.8735 5.3795-2.2123 8.2568l10.4006 18.0146c-1.8217-1.2839-4.3693-2.3377-6.4624-1.7489-2.8717.7593-4.7659 4.501-4.1264 7.2081.3898 1.4897 1.4646 2.8204 3.1933 4.2088 8.1191 6.2117 16.8357 11.6433 25.3684 14.662.4051.1393.8693.0956 1.2412-.1168l17.6666-10.1998c.277-.1634.4988-.4182.6235-.7145 1.078-2.4829 1.2238-5.7363.8488-9.2962-.3748-3.5599-1.3071-7.4024-2.6637-10.8943s-3.0921-6.4933-5.3281-8.7562c-2.158-2.1841-5.2089-3.2772-8.0978-2.0316-.6394.3656-1.2807.8102-1.775 1.2701-.799-.6088-1.6646-1.0216-2.4882-1.0989-1.3793-.1295-2.5015.2268-3.3004.7058-.7669.46-1.3102 1.1497-1.6811 1.9521-.5296-.2671-1.0772-.547-1.6016-.6021-1.3769-.1444-2.5216.2563-3.3413.7295-.6779.3914-1.2254.9582-1.7032 1.5831l-6.3041-10.9191c-2.0778-3.4704-5.8439-3.6145-8.2568-2.2125zm1.5111 2.6174c1.4726-.8503 3.2782-.3664 4.1284 1.1062l7.9333 13.7409c.3338.5981 1.1086.9093 1.7634.7082s1.1212-.8935 1.0618-1.5759c-.0582-.7679.6697-2.0225 1.3771-2.4309.3178-.1834.9832-.3916 1.5245-.3349.5414.0568 1.0218.2116 1.572 1.1645.3358.5818 1.0929.8816 1.737.6906.644-.1911 1.1138-.8552 1.0794-1.5261-.0824-1.3715.1033-1.7081.7521-2.0973.1794-.1079.8845-.3537 1.463-.2994s1.0771.2128 1.6129 1.1408c.2877.5135.9006.823 1.4854.7566.5848-.0665 1.1098-.5064 1.2777-1.0705.355-.5311.7988-.8862 1.4383-1.2393 1.6748-.7023 3.0492-.1921 4.7303 1.4404 1.6964 1.6474 3.3432 4.4516 4.5969 7.6788 1.2539 3.2272 2.147 6.8606 2.4905 10.1219.3221 3.0587.0934 5.7247-.5088 7.3823l-16.5012 9.5269c-7.722-2.7667-16.9125-8.5552-23.8217-13.9191-1.4798-1.1884-2.0413-2.0372-2.1875-2.6084-.2458-1.5458.6986-3.0438 1.967-3.5348 1.6938-.2793 2.5746.4501 3.783 1.1692l5.6072 3.7149c.5639.3652 1.3739.2904 1.8614-.1718s.605-1.2671.2704-1.8496l-13.6-23.5559c-.8502-1.4726-.3663-3.2782 1.1062-4.1284z"/><path d="m16.622 8.31107c0-.39772-.1495-.80413-.4485-1.0861l-6.79869-6.799972c-.30267-.3299495-.6821-.4091314-1.06221-.424998-.41367.0128444-.74332.110915-1.06231.424998l-6.79859 6.799972c-.609882.5551-.586842 1.57894-.023427 2.14855.563189.56977 1.589807.57438 2.148237 0l4.22544-4.22632v28.9943l-4.22544-4.2264c-.55843-.5744-1.585048-.5698-2.148237 0-.563264.5696-.556837 1.5965.023427 2.1486l6.79859 6.8c.31899.3141.64864.4123 1.06231.425.38011-.0158.75954-.095 1.06221-.425l6.79869-6.8c.5981-.5638.5868-1.579.0234-2.1486-.5632-.5696-1.5898-.5742-2.1481 0l-4.22565 4.2264c0-9.6648 0-19.3295 0-28.9943l4.22565 4.22632c.5583.5743 1.5849.56961 2.1481 0 .2817-.28476.4289-.66472.425-1.06245z"/></g></svg>

<svg width="72" height="68" viewBox="0 0 72 68" fill="none" xmlns="http://www.w3.org/2000/svg">
<path d="M24.2935 17.3194C21.4162 18.9806 20.42 22.6989 22.0812 25.5762L32.4818 43.5908C30.6601 42.3069 28.1125 41.2531 26.0194 41.8419C23.1477 42.6012 21.2535 46.3429 21.893 49.05C22.2828 50.5397 23.3576 51.8704 25.0863 53.2588C33.2054 59.4705 41.922 64.9021 50.4547 67.9208C50.8598 68.0601 51.324 68.0164 51.6959 67.804L69.3625 57.6042C69.6395 57.4408 69.8613 57.186 69.986 56.8897C71.064 54.4068 71.2098 51.1534 70.8348 47.5935C70.46 44.0336 69.5277 40.1911 68.1711 36.6992C66.8145 33.2073 65.079 30.2059 62.843 27.943C60.685 25.7589 57.6341 24.6658 54.7452 25.9114C54.1058 26.277 53.4645 26.7216 52.9702 27.1815C52.1712 26.5727 51.3056 26.1599 50.482 26.0826C49.1027 25.9531 47.9805 26.3094 47.1816 26.7884C46.4147 27.2484 45.8714 27.9381 45.5005 28.7405C44.9709 28.4734 44.4233 28.1935 43.8989 28.1384C42.522 27.994 41.3773 28.3947 40.5576 28.8679C39.8797 29.2593 39.3322 29.8261 38.8544 30.451L32.5503 19.5319C30.4725 16.0615 26.7064 15.9174 24.2935 17.3194ZM25.8046 19.9368C27.2772 19.0865 29.0828 19.5704 29.933 21.043L37.8663 34.7839C38.2001 35.382 38.9749 35.6932 39.6297 35.4921C40.2845 35.291 40.7509 34.5986 40.6915 33.9162C40.6333 33.1483 41.3612 31.8937 42.0686 31.4853C42.3864 31.3019 43.0518 31.0937 43.5931 31.1504C44.1345 31.2072 44.6149 31.362 45.1651 32.3149C45.5009 32.8967 46.258 33.1965 46.9021 33.0055C47.5461 32.8144 48.0159 32.1503 47.9815 31.4794C47.8991 30.1079 48.0848 29.7713 48.7336 29.3821C48.913 29.2742 49.6181 29.0284 50.1966 29.0827C50.7751 29.137 51.2737 29.2955 51.8095 30.2235C52.0972 30.737 52.7101 31.0465 53.2949 30.9801C53.8797 30.9136 54.4047 30.4737 54.5726 29.9096C54.9276 29.3785 55.3714 29.0234 56.0109 28.6703C57.6857 27.968 59.0601 28.4782 60.7412 30.1107C62.4376 31.7581 64.0844 34.5623 65.3381 37.7895C66.592 41.0167 67.4851 44.6501 67.8286 47.9114C68.1507 50.9701 67.922 53.6361 67.3198 55.2937L50.8186 64.8206C43.0966 62.0539 33.9061 56.2654 26.9969 50.9015C25.5171 49.7131 24.9556 48.8643 24.8094 48.2931C24.5636 46.7473 25.508 45.2493 26.7764 44.7583C28.4702 44.479 29.351 45.2084 30.5594 45.9275L36.1666 49.6424C36.7305 50.0076 37.5405 49.9328 38.028 49.4706C38.5155 49.0084 38.633 48.2035 38.2984 47.621L24.6984 24.0651C23.8482 22.5925 24.3321 20.7869 25.8046 19.9367V19.9368Z" fill="white"/>
<path d="M16.622 8.31107C16.622 7.91335 16.4725 7.50694 16.1735 7.22497L9.37481 0.424998C9.07214 0.0950485 8.69271 0.0158666 8.3126 0C7.89893 0.0128444 7.56928 0.110915 7.25029 0.424998L0.4517 7.22497C-0.158182 7.78007 -0.135142 8.80391 0.428273 9.37352C0.991462 9.94329 2.01808 9.9479 2.57651 9.37352L6.80195 5.1472C6.80195 14.812 6.80195 24.4767 6.80195 34.1415L2.57651 29.9151C2.01808 29.3407 0.991462 29.3453 0.428273 29.9151C-0.134991 30.4847 -0.128564 31.5116 0.4517 32.0637L7.25029 38.8637C7.56928 39.1778 7.89893 39.276 8.3126 39.2887C8.69271 39.2729 9.07214 39.1937 9.37481 38.8637L16.1735 32.0637C16.7716 31.4999 16.7603 30.4847 16.1969 29.9151C15.6337 29.3455 14.6071 29.3409 14.0488 29.9151L9.82315 34.1415C9.82315 24.4767 9.82315 14.812 9.82315 5.1472L14.0488 9.37352C14.6071 9.94782 15.6337 9.94313 16.1969 9.37352C16.4786 9.08876 16.6258 8.7088 16.6219 8.31107H16.622Z" fill="white"/>
</svg>
